build/svg/cmd/32/cancel.svg

<?xml version="1.0" encoding="UTF-8" standalone="no"?>
<svg
   xmlns:dc="http://purl.org/dc/elements/1.1/"
   xmlns:cc="http://creativecommons.org/ns#"
   xmlns:rdf="http://www.w3.org/1999/02/22-rdf-syntax-ns#"
   xmlns:svg="http://www.w3.org/2000/svg"
   xmlns="http://www.w3.org/2000/svg"
   xmlns:sodipodi="http://sodipodi.sourceforge.net/DTD/sodipodi-0.dtd"
   xmlns:inkscape="http://www.inkscape.org/namespaces/inkscape"
   viewBox="0 0 32 32"
   version="1.1"
   id="svg4"
   sodipodi:docname="cancel.svg"
   inkscape:export-filename="/home/jupiter007/Libreoffice yaru theme fullcolor/build/cmd/32/cancel.png"
   inkscape:export-xdpi="96"
   inkscape:export-ydpi="96"
   inkscape:version="0.92.5 (2060ec1f9f, 2020-04-08)">
  <metadata
     id="metadata10">
    <rdf:RDF>
      <cc:Work
         rdf:about="">
        <dc:format>image/svg+xml</dc:format>
        <dc:type
           rdf:resource="http://purl.org/dc/dcmitype/StillImage" />
      </cc:Work>
    </rdf:RDF>
  </metadata>
  <defs
     id="defs8" />
  <sodipodi:namedview
     pagecolor="#ffffff"
     bordercolor="#666666"
     borderopacity="1"
     objecttolerance="10"
     gridtolerance="10"
     guidetolerance="10"
     inkscape:pageopacity="0"
     inkscape:pageshadow="2"
     inkscape:window-width="1920"
     inkscape:window-height="1011"
     id="namedview6"
     showgrid="true"
     inkscape:zoom="20.85965"
     inkscape:cx="18.485553"
     inkscape:cy="20.09243"
     inkscape:window-x="1920"
     inkscape:window-y="32"
     inkscape:window-maximized="1"
     inkscape:current-layer="svg4">
    <inkscape:grid
       type="xygrid"
       id="grid823" />
  </sodipodi:namedview>
  <path
     d="m -45.692631,6.7118644 -0.748047,0.7480469 11.251953,11.2519527 -11.251953,11.251953 0.748047,0.748047 11.251953,-11.251953 11.251953,11.251953 0.748047,-0.748047 L -33.692631,18.711864 -22.440678,7.4599113 -23.188725,6.7118644 -34.440678,17.963817 Z"
     id="path2"
     inkscape:connector-curvature="0"
     style="fill:#c7162b" />
  <circle
     style="opacity:1;fill:#c7162b;fill-opacity:1;fill-rule:nonzero;stroke:none;stroke-width:6.50000095;stroke-linecap:round;stroke-linejoin:round;stroke-miterlimit:4;stroke-dasharray:none;stroke-opacity:0.98705498"
     id="path904"
     cx="16"
     cy="16"
     r="13" />
  <path
     style="opacity:1;fill:#ffffff;fill-opacity:1;fill-rule:evenodd;stroke:none;stroke-width:2;stroke-linecap:butt;stroke-linejoin:round;stroke-miterlimit:4;stroke-dasharray:none;stroke-opacity:1"
     d="M 20.949747,9.636039 16,14.585786 11.050253,9.636039 9.636039,11.050253 14.585786,16 9.636039,20.949747 11.050253,22.363961 16,17.414214 20.949747,22.363961 22.363961,20.949747 17.414214,16 22.363961,11.050253 Z"
     id="rect825"
     inkscape:connector-curvature="0" />
</svg>

<svg xmlns="http://www.w3.org/2000/svg" viewBox="0 0 32 32"><path d="M-45.693 6.712l-.748.748 11.252 11.252-11.252 11.252.748.748L-34.44 19.46l11.252 11.252.748-.748-11.252-11.252L-22.44 7.46l-.748-.748-11.252 11.252z" fill="#c7162b"/><circle cx="16" cy="16" r="13" fill="#c7162b"/><path d="M20.95 9.636L16 14.586l-4.95-4.95-1.414 1.414 4.95 4.95-4.95 4.95 1.414 1.414 4.95-4.95 4.95 4.95 1.414-1.414-4.95-4.95 4.95-4.95z" fill="#fff" fill-rule="evenodd"/></svg>
